X:1
T:Title
%%score { 1 | ( 2 3 ) }
L:1/8
M:4/4
K:Eb
V:1 treble nm="Grand Piano"
V:2 bass 
V:3 bass 
V:1
 z4 z2[Q:1/4=100] B2 | c2 B2 A2 G2 | [CF]4 C2 E2 | D2 E2 [EG]2 F2 | B4 z2 B2 | c2 B2 A2 G2 | %6
 [A,CF]4[K:bass] [A,C]2 [F,CE]2 | [F,B,D]2[K:treble] [G,B,E]2 [B,EG]3 [A,DF] | [G,E]4 z2 [B,EG]2 | %9
 [Ge]2 [Fd]2 c2 G2 | [GB]3 A A2 A2 | [Fd]2 [Ac]2 [GB]2 [FA]2 | [EG]4 z2 [EB]2 | %13
 [=Ec]2 [GB]2 [FA]2 [EG]2 | [GB]3 A [CFA]2 [A,CF]2 | [G,B,E]2 [B,EG]2 [B,DG]3 [A,DF] | %16
[M:3/4] [G,E]4 z2 |] %17
V:2
 z4 z2 [E,G,E]2 | [E,A,E]2 [E,G,E]2 [E,CE]2 [E,B,E]2 | [A,,A,]4 [A,,A,]2 [C,F,=A,]2 | %3
 [B,,F,B,]2 [B,,G,B,]2 [B,,B,]2 [A,B,D]2 | [G,B,E]4 z2 [E,G,E]2 | %5
 [E,A,E]2 [E,G,E]2 [E,CE]2 [E,B,E]2 | A,,4 A,,2 =A,,2 | B,,2 B,,2 B,,3 B,, | E,4 z2 E,2 | %9
 [C,C]2 [D,=B,]2 [E,CE]2 [=E,C]2 | z2 z[K:treble] F [F,CF]2[K:bass] [F,CF]2 | %11
 [B,,B,]2 [B,,B,]2 [C,B,]2 [D,B,]2 | [E,B,]4 z2 [E,G,]2 | [C,G,]2 [C,C]2 [C,C]2 [C,C]2 | %14
 [F,C]4 z4 | B,,2 B,,2 B,,3 B,, |[M:3/4] E,4 z2 |] %17
V:3
 x8 | x8 | x8 | x8 | x8 | x8 | x8 | x8 | x8 | x8 | [F,C]4[K:treble] z4[K:bass] | x8 | x8 | x8 | %14
 z2 z F F,2 A,,2 | x8 |[M:3/4] x6 |] %17

